lib/healthicons/icons/solid/people/i_groups_perspective_crowd.svg

<svg fill="none" height="48" viewBox="0 0 48 48" width="48" xmlns="http://www.w3.org/2000/svg"><g fill="#333"><path d="m18 16.5c0 2.4862-2.0138 4.5-4.5 4.5s-4.5-2.0138-4.5-4.5 2.0138-4.5 4.5-4.5 4.5 2.0138 4.5 4.5z"/><path d="m4 28.3333c0-3.5466 6.3294-5.3333 9.5-5.3333s9.5 1.7867 9.5 5.3333v7.6667h-19z"/><path d="m39 16.5c0 2.4862-2.0137 4.5-4.5 4.5-2.4862 0-4.5-2.0138-4.5-4.5s2.0138-4.5 4.5-4.5c2.4863 0 4.5 2.0138 4.5 4.5z"/><path d="m27 15c0 1.6575-1.3425 3-3 3s-3-1.3425-3-3 1.3425-3 3-3 3 1.3425 3 3z"/><path d="m25 28.3333c0-3.5466 6.3294-5.3333 9.5-5.3333s9.5 1.7867 9.5 5.3333v7.6667h-19z"/><path clip-rule="evenodd" d="m28.7508 22.185c-.2669.0981-.5302.2023-.7883.3125-1.1711.5005-2.3537 1.1766-3.2725 2.081-.246.2423-.4795.5079-.69.7965-.2105-.2886-.444-.5542-.6901-.7965-.9187-.9044-2.1014-1.5805-3.2725-2.081-.258-.1102-.5213-.2144-.7883-.3125 1.5226-.7889 3.4807-1.185 4.7509-1.185 1.2701 0 3.2282.3961 4.7508 1.185z" fill-rule="evenodd"/></g></svg>

<svg width="48" height="48" viewBox="0 0 48 48" fill="none" xmlns="http://www.w3.org/2000/svg">
<path d="M18 16.5C18 18.9862 15.9862 21 13.5 21C11.0138 21 9 18.9862 9 16.5C9 14.0138 11.0138 12 13.5 12C15.9862 12 18 14.0138 18 16.5Z" fill="#333333"/>
<path d="M4 28.3333C4 24.7867 10.3294 23 13.5 23C16.6706 23 23 24.7867 23 28.3333V36H4V28.3333Z" fill="#333333"/>
<path d="M39 16.5C39 18.9862 36.9863 21 34.5 21C32.0138 21 30 18.9862 30 16.5C30 14.0138 32.0138 12 34.5 12C36.9863 12 39 14.0138 39 16.5Z" fill="#333333"/>
<path d="M27 15C27 16.6575 25.6575 18 24 18C22.3425 18 21 16.6575 21 15C21 13.3425 22.3425 12 24 12C25.6575 12 27 13.3425 27 15Z" fill="#333333"/>
<path d="M25 28.3333C25 24.7867 31.3294 23 34.5 23C37.6706 23 44 24.7867 44 28.3333V36H25V28.3333Z" fill="#333333"/>
<path fill-rule="evenodd" clip-rule="evenodd" d="M28.7508 22.185C28.4839 22.2831 28.2206 22.3873 27.9625 22.4975C26.7914 22.998 25.6088 23.6741 24.69 24.5785C24.444 24.8208 24.2105 25.0864 24 25.375C23.7895 25.0864 23.556 24.8208 23.3099 24.5785C22.3912 23.6741 21.2085 22.998 20.0374 22.4975C19.7794 22.3873 19.5161 22.2831 19.2491 22.185C20.7717 21.3961 22.7298 21 24 21C25.2701 21 27.2282 21.3961 28.7508 22.185Z" fill="#333333"/>
</svg>
